img/icon-messenger.svg

<svg viewBox="0 0 16 16" xmlns="http://www.w3.org/2000/svg"><path d="m8 0c-4.418 0-8 3.317-8 7.407a7.2 7.2 0 0 0 2.981 5.768v2.825l2.724-1.495a8.616 8.616 0 0 0 2.295.31c4.418 0 8-3.316 8-7.407s-3.582-7.408-8-7.408zm.8 9.975-2.042-2.175-3.975 2.175 4.372-4.642 2.087 2.173 3.926-2.173z" fill="#bee4e8" fill-rule="evenodd"/></svg>

<svg xmlns="http://www.w3.org/2000/svg" viewBox="0 0 16 16">
  <defs>
    <style>
      .cls-1 {
        fill: #bee4e8;
        fill-rule: evenodd;
      }
    </style>
  </defs>
  <path id="iconmonstr-facebook-messenger-1" class="cls-1" d="M8,0C3.582,0,0,3.317,0,7.407a7.2,7.2,0,0,0,2.981,5.768V16l2.724-1.495A8.616,8.616,0,0,0,8,14.815c4.418,0,8-3.316,8-7.407S12.418,0,8,0Zm.8,9.975L6.758,7.8,2.783,9.975,7.155,5.333,9.242,7.506l3.926-2.173L8.8,9.975Z"/>
</svg>
